X:1
T:Hov Arek (Hover My Dove)
C:Trad Armenian (pre-1900); attributed to various folk composers
S:Public domain — traditional Armenian folk song
M:4/4
L:1/4
Q:1/4=58
K:Dm
H:D Dorian/natural minor. Arranged for A duduk; range A3-D4.
H:The opening glide A3->D4 is the signature gesture of this tune.
{A,}D C B, A, | G, A, B, C | D E {F}E D | C4 |
D C B, A, | G, F, G, A, | B,2 {C}B, A, | A,4 |
F G A B | c d e f | {g}f e d c | B4 |
A B c B | A G F E | D2 {E}D C | D4 |]
